src/icons/calculator.svg

<svg xmlns="http://www.w3.org/2000/svg" width="8" height="8" viewBox="0 0 8 8">
  <path d="M.09 0c-.06 0-.09.04-.09.09v7.81c0 .05.04.09.09.09h6.81c.05 0 .09-.04.09-.09v-7.81c0-.06-.04-.09-.09-.09h-6.81zm.91 1h5v2h-5v-2zm0 3h1v1h-1v-1zm2 0h1v1h-1v-1zm2 0h1v3h-1v-3zm-4 2h1v1h-1v-1zm2 0h1v1h-1v-1z" />
</svg>

<svg xmlns="http://www.w3.org/2000/svg" viewBox="0 0 8 8"><path d="M.09 0C.03 0 0 .04 0 .09V7.9c0 .05.04.09.09.09H6.9c.05 0 .09-.04.09-.09V.09C6.99.03 6.95 0 6.9 0H.09zM1 1h5v2H1V1zm0 3h1v1H1V4zm2 0h1v1H3V4zm2 0h1v3H5V4zM1 6h1v1H1V6zm2 0h1v1H3V6z"/></svg>
